usr/share/icons/biglinux-icons-material-dark/22/actions/view-object-histogram-linear.svg

<svg xmlns="http://www.w3.org/2000/svg" viewBox="0 0 22 22">
<defs id="defs3051">
<style id="current-color-scheme" type="text/css">
.ColorScheme-Text{color:#dedede}
</style>
</defs>
<path d="M4 3v14H3v1h1v1h1v-1h14v-1h-1v-1h-2v-1h-2v-1h-1v1h-1v-1h-1V7h-1V3H9v2H8v3H7v2H6v3H5V3z" class="ColorScheme-Text" style="fill:currentColor;fill-opacity:1;stroke:none"/>
</svg>

<svg xmlns="http://www.w3.org/2000/svg" viewBox="0 0 22 22">
  <defs id="defs3051">
    <style type="text/css" id="current-color-scheme">
      .ColorScheme-Text {
        color:#dedede;
      }
      </style>
  </defs>
 <path 
    style="fill:currentColor;fill-opacity:1;stroke:none" 
    d="M 4 3 L 4 17 L 3 17 L 3 18 L 4 18 L 4 19 L 5 19 L 5 18 L 19 18 L 19 17 L 18 17 L 18 16 L 17 16 L 16 16 L 16 15 L 15 15 L 14 15 L 14 14 L 13 14 L 13 15 L 12 15 L 12 14 L 11 14 L 11 7 L 10 7 L 10 3 L 9 3 L 9 5 L 8 5 L 8 8 L 7 8 L 7 10 L 6 10 L 6 13 L 5 13 L 5 3 L 4 3 z "
	class="ColorScheme-Text"
    />  
</svg>
